modules/framework7-icons/icons/albums_fill.svg

<?xml version="1.0" encoding="UTF-8"?>
<svg width="38px" height="48px" viewBox="0 0 38 48" version="1.1" xmlns="http://www.w3.org/2000/svg" xmlns:xlink="http://www.w3.org/1999/xlink">
    <!-- Generator: Sketch 40.1 (33804) - http://www.bohemiancoding.com/sketch -->
    <title>albums_fill</title>
    <desc>Created with Sketch.</desc>
    <defs></defs>
    <g id="Page-1" stroke="none" stroke-width="1" fill="none" fill-rule="evenodd">
        <g id="albums_fill" fill="#000000">
            <path d="M0,8 L38,8 L38,48 L0,48 L0,8 Z M17.6097707,20.2874185 C17.6113677,20.592415 17.6113677,20.592415 17.6134336,20.9957742 C17.6142815,21.1454786 17.615762,21.4219208 17.6176654,21.8031615 C17.6208382,22.4386468 17.624011,23.1344868 17.6269722,23.8684084 C17.6323374,25.1980994 17.636398,26.5013976 17.6386271,27.7227686 C17.6442871,30.8239999 17.6386271,32.2687368 17.6386271,32.2687368 L17.6386271,32.4142456 C17.6386271,32.4142456 17.1886337,32.5721899 16.7512638,32.6738579 C16.3509233,32.7669183 16.0893484,32.8071652 15.2432359,32.9190695 C14.4352929,33.0259256 14.0259175,33.0989997 13.5775152,33.2436225 C11.6815688,33.8551203 10.5122283,35.5378081 10.9570429,37.7195892 C11.4978657,40.3722831 15.418442,40.4174799 17.8601796,38.9102222 C18.8205865,38.3173737 19.5310694,36.2767518 19.6075183,34.2327203 C19.6362967,33.4632649 19.6448708,31.1419951 19.6386238,27.7191185 C19.6366625,26.6445254 19.6332861,25.5068228 19.6288523,24.3435966 L27.2554569,23.133853 C27.8104322,23.045822 28.2487133,22.5287244 28.2444272,21.9772904 L28.2081102,17.3049228 C28.2038313,16.7544098 27.7619553,16.3750564 27.2211686,16.4596704 L18.5691467,17.8134065 C18.0323722,17.8973928 17.5944864,18.4150073 17.6000628,18.9681288 L17.6104339,19.9968239 C17.6085276,20.0520517 17.6085276,20.0520517 17.6097707,20.2874185 Z" id="Combined-Shape"></path>
            <rect id="Rectangle-54" x="2" y="4" width="34" height="2"></rect>
            <rect id="Rectangle-54-Copy" x="3" y="0" width="32" height="2"></rect>
        </g>
    </g>
</svg>

<svg width="38" height="48" xmlns="http://www.w3.org/2000/svg"><path d="M0 8h38v40H0V8zm17.61 12.287l.003.709a1311.176 1311.176 0 0 1 .014 2.872c.005 1.33.01 2.633.012 3.855.005 3.101 0 4.546 0 4.546v.145s-.45.158-.888.26c-.4.093-.662.133-1.508.245-.808.107-1.217.18-1.665.325-1.896.611-3.066 2.294-2.621 4.476.54 2.652 4.461 2.697 6.903 1.19.96-.593 1.671-2.633 1.748-4.677.028-.77.037-3.091.03-6.514a1015.83 1015.83 0 0 0-.01-3.375l7.627-1.21c.555-.088.994-.605.99-1.157l-.037-4.672c-.004-.55-.446-.93-.987-.845l-8.652 1.353c-.537.084-.975.602-.969 1.155l.01 1.029v.29zM2 4h34v2H2zm1-4h32v2H3z" fill-rule="evenodd"/></svg>
